X:1
T:A minor Oliver Holden, 1800
T:Joel Barlow, 1786 (Psalm 88)  888. 888.
T:Erie No copyright. Treble-Tenor-Bass from Plain Psalmody , 1800; Counter by B. C. Johnston, 2015.
%%score [ 1 2 3 4 ]
L:1/8
M:4/4
K:C
V:1 treble nm="Treble" snm="Tr."
V:2 treble nm="Counter" snm="C."
V:3 treble-8 nm="Tenor" snm="T."
V:4 bass nm="Bass" snm="B."
V:1
 E4 | A2 A2 e3 f | dc B2 c3 d | cB A2 B2 A2 | G2 F2 E2 E2 | A2 B2 cd e2 | dc B2 A4 | z4 c4 | %8
 B2 B2 B2 c2 | d2 d2 d2 e2 | f2 e2 d2 c2 | B4 A4 | B6 c2 | d2 B2 cf ec | B6 BA | A8 |] %16
V:2
 C4 | E2 E2 E3 F | EF ^G2 E3 D | EF E2 B2 A2 | G2 F2 E2 G2 | A2 F2 G2 G2 | ^G2 G2 E4 | z4 E4 | %8
w: 1.~As|lost in lone- ly|grief. * I tread The|si- * lent man- sions|of the dead, Or|to some throng'd as-|sem- bly go;|Through|
 G2 G2 G2 E2 | G2 D2 G2 A2 | F2 E2 ^G2 E2 | E4 E4 | ^G6 A2 | ^G2 G2 A2 EF | ^G6 G2 | E8 |] %16
w: all a- like I|rove a- lone, For-|got- ten here, and|there un-|known, The|change re- news my *|pier- cing|woe.|
V:3
 A4 | c2 c2 c3 B | A2 ^G2 A3 B | ed c2 B2 A2 | G2 F2 E2 E2 | F2 F2 E2 c2 | B2 ^G2 A4 | z4 A4 | %8
 e2 e2 e2 A2 | B2 B2 B2 A2 | B2 A2 ^G2 A2 | ^G4 e4 | e6 e2 | f2 d2 ed cd | e6 e2 | e8 |] %16
V:4
 A,,4 | A,,2 A,,2 C,3 D, | E,2 E,2 A,3 ^G, | A,B, C2 B,2 A,2 | G,2 F,2 E,2 E,2 | D,2 D,2 C,2 C,2 | %6
 D,2 E,2 A,,4 | z4 A,4 | E,2 E,2 E,2 A,2 | G,2 G,2 G,2 C2 | D2 C2 B,2 A,2 | E,4 A,,4 | E,6 A,2 | %13
 ^G,2 G,2 A,2 D,2 | E,6 E,2 | A,,8 |] %16

